X:438
T:Tros Y Gareg (Over the Stone)
R:Waltz
O:Welsh Trad.
M:3/4
L:1/4
K:G
B, |!segno! "Em"E2E |"_B" [B,^D]>^CB, |"Em" E2E |"B7" F2F |
"G" G2G |"D" F>ED |"G" G2G |"D" A2G/A/ |
"G"B2B |"Em" [eB]>cB |"Am" [CA]A |"B7" [B,A]B^d |
"Em" e2B |"Am" c>BA |"Em/G" G2 "B7"[B,^D] |"Em" E2 !fine! ||
G/A/ |"G" B>AB | GAB |"D" A2G |"Bm" F3 |
"Em" G>FG |"C" [CE]FG |"B7" F2B | B,2B "D.S. al fine"|]
